X: 10201
M: C
L: 1/8
K: G
V: 1 staves=3
|: B>c |\
d2B>d G2E>G | C2C>C C2c>d | e2c>e A2F>A | D2D>D DEFD |\
V: 2
|: z2 |\
z4 G2E>G | C2C>C C2z2 | z4 A2F>A | D2D>D D2z2 |\
V: 3 clef=bass middle=d
d2 |\
g2z2 g2z2 | g2g2 g2z2 | f2z2 g2b>g | d2d>d d2z2 |\
g2z2 g2z2 | g2g2 g2z2 | c2c2 d2d2 | G2G>G G2 :|
|: z2 |\
z4 g2e>g | c2c>c c2z2 | z4 a2f>a | d2d>d d2z2 |\


